X: 1
T: a Dhomhnuill
D: Kinnon Beaton "Saturday Night Lively"
Z: arr. T. Traub 5-3-2005
K: G
L: 1/8
M: 4/4
R: reel
GE |\
"G"DGGA B2 ge | dBAB "C"GEDE |\
"G"G2 GA B2 ge | "D"dBAB "G"G2 :|
|: a |\
"G"gfed "Em"e2 eg | "Am"aeeg edBd |\
[1 "G"gfed e2 eg | "D"dBAB "G"G2 G :|\
[2 "G"gfed "C"efge | "D"dBcA "G"G2 G |]
